X: 1
T: Olympia, The
M: 4/4
L: 1/8
R: hornpipe
K: Emaj
(3bcd|:edef gB(3aba | gBfB gece | dFcF dF (3Bcd | eGdG (3cGA (3Bcd | edef gB (3aba |
gBfB g=fcB | (3ABc (3fga (3gfe (3fed | 1 (3eBG (3EGB e2 (3Bcd:| 2 (3eBG (3EGB e2 (3efg ||
aecA g=fcB | (3ABc GcF2 (3fg_b | bfdB (3agf (3edc | BFDf,B2 (3AGF | 
(3EGB (3egb (3_bfe (3fec | (3afd (3fdB (3geB (3ebG | (3ABc (3fga | (3gfe (3fed |
(3eBG (3EGB e2 (3efg | aecA g=fcB | (3ABc fef2 (3fg_b | bfdB (3agf (3edc | 
(3BBB (3_BBB =B2 (3AGF | (3EGB (3egb (3_bfe (3fec | (3afd (3fdB (3geB (3ebG | 
(3ABc (3fga | (3gfe (3fed | (3egb (3'ebg e2 (3Bcd ||
